shared/images/iconfont/24-kb-iconfont-download-2-16.svg

<?xml version="1.0" encoding="UTF-8"?>
<svg width="16px" height="16px" viewBox="0 0 16 16" version="1.1" xmlns="http://www.w3.org/2000/svg" xmlns:xlink="http://www.w3.org/1999/xlink">
    <!-- Generator: sketchtool 57.1 (101010) - https://sketch.com -->
    <title>38D249C3-BFB6-46F1-A4D6-F26547470F1D</title>
    <desc>Created with sketchtool.</desc>
    <g id="Symbols" stroke="none" stroke-width="1" fill="none" fill-rule="evenodd">
        <g id="24-kb-iconfont-download-2-16">
            <g>
                <rect id="icon-area" opacity="0" x="0" y="0" width="16" height="16"></rect>
                <path d="M11.1509225,5.90114441 L9.02755886,5.90114441 L9.02755886,2.09304889 C9.02755886,1.44871668 8.65692137,1 8.01258917,1 C7.36825696,1 7.02213647,1.44871668 7.02213647,2.09304889 L7.02213647,5.90114441 L4.87425583,5.90114441 C4.52059057,5.90145548 4.20188745,6.11463863 4.06658769,6.44140031 C3.93128794,6.76816198 4.00599881,7.14424312 4.2559225,7.39447774 L8.01258917,10.9166667 L11.7692558,7.39447774 C12.0191795,7.14424312 12.0938904,6.76816198 11.9585906,6.44140031 C11.8232909,6.11463863 11.5045878,5.90145548 11.1509225,5.90114441 Z M12.8,13 L3.2,13 C2.5372583,13 2,13.4477153 2,14 C2,14.5522847 2.5372583,15 3.2,15 L12.8,15 C13.4627417,15 14,14.5522847 14,14 C14,13.4477153 13.4627417,13 12.8,13 Z" id="download" fill="#000000"></path>
            </g>
        </g>
    </g>
</svg>

<svg xmlns="http://www.w3.org/2000/svg" width="16" height="16" viewBox="0 0 16 16">
    <path fill="#000" fill-rule="nonzero" d="M11.15 5.901H9.029V2.093C9.028 1.449 8.657 1 8.013 1c-.645 0-.99.449-.99 1.093v3.808H4.873a.875.875 0 0 0-.618 1.493l3.757 3.523 3.756-3.523a.875.875 0 0 0-.618-1.493zM12.8 13H3.2c-.663 0-1.2.448-1.2 1s.537 1 1.2 1h9.6c.663 0 1.2-.448 1.2-1s-.537-1-1.2-1z"/>
</svg>
